X:1
T: The Weaver has a Dochter
C:
R:Strathspey
Q: 128
K:Gm
M:4/4
L:1/16
|:d2|BG3 G3A BF3 F3d|BG3 G3F e6 g2|f3e d3c B3G F3e|d3c B3A G6 d2|
BG3 G3A BF3 F3d|BG3 G3F e6 g2|f3e d3c B3G F3e|d3c B3A G6 ^f2|
gd3 d3=e fc3 c3^f|gd3 dg3 d3b a3g|f3d d3c B3G F3e|d3c B3A G6 ^f2|
gd3 d3=e fc3 c3^f|gd3 dg3 d3b a3g|f3d d3c B3G F3e|d3c B3A G6:|
